icons/afphoto.svg

<svg width="16" height="16" viewBox="0 0 16 16" fill="none" xmlns="http://www.w3.org/2000/svg">
<path d="M14 4.20402L10.1256 10.5H14V4.20402Z" fill="#CC6BEE"/>
<path d="M13.4885 3.12721L10.619 7.79005L7.7709 3H13C13.1774 3 13.344 3.0462 13.4885 3.12721Z" fill="#CC6BEE"/>
<path d="M6.60748 3H6.5L4.8125 6H8.39126L6.60748 3Z" fill="#CC6BEE"/>
<path d="M4.25 7H5.97288L2.04235 13.2888C2.0148 13.1974 2 13.1004 2 13V11L4.25 7Z" fill="#CC6BEE"/>
<path d="M2.79082 13.9781C2.85828 13.9924 2.92826 14 3 14H7.72445L5.46282 9.70289L2.79082 13.9781Z" fill="#CC6BEE"/>
<path d="M8.8545 14H13C13.5523 14 14 13.5523 14 13V11.5H7.53871L8.8545 14Z" fill="#CC6BEE"/>
<path d="M7.01239 10.5L6.07627 8.72137L7.15212 7H8.98586L10.0273 8.75157L8.95137 10.5H7.01239Z" fill="#CC6BEE"/>
</svg>

<svg xmlns="http://www.w3.org/2000/svg" width="16" height="16" fill="none"><path fill="#CC6BEE" d="M14 4.204 10.126 10.5H14V4.204ZM13.489 3.127l-2.87 4.663L7.771 3H13c.177 0 .344.046.489.127ZM6.607 3H6.5L4.812 6h3.58L6.606 3ZM4.25 7h1.723l-3.93 6.289A1 1 0 0 1 2 13v-2l2.25-4ZM2.79 13.978c.068.014.138.022.21.022h4.724L5.463 9.703 2.79 13.978ZM8.854 14H13a1 1 0 0 0 1-1v-1.5H7.539L8.855 14ZM7.012 10.5l-.936-1.779L7.152 7h1.834l1.041 1.752L8.951 10.5H7.012Z"/></svg>
